src/components/atoms/Icon/icons/verified-dark-regular.svg

<svg width="24" height="24" xmlns="http://www.w3.org/2000/svg"><g fill="none" fill-rule="evenodd"><path d="M0 0h24v24H0z"/><path d="M12 1L3 5v6c0 5.55 3.84 10.74 9 12 5.16-1.26 9-6.45 9-12V5l-9-4zm-2 16l-4-4 1.41-1.41L10 14.17l6.59-6.59L18 9l-8 8z" fill="#384C57" fill-rule="nonzero"/></g></svg>

<?xml version="1.0" encoding="UTF-8"?>
<svg width="24px" height="24px" viewBox="0 0 24 24" version="1.1" xmlns="http://www.w3.org/2000/svg" xmlns:xlink="http://www.w3.org/1999/xlink">
    <!-- Generator: Sketch 51.1 (57501) - http://www.bohemiancoding.com/sketch -->
    <title>Icon/24/verified-dark</title>
    <desc>Created with Sketch.</desc>
    <defs></defs>
    <g id="Icon/24/verified-dark" stroke="none" stroke-width="1" fill="none" fill-rule="evenodd">
        <g id="Shape">
            <polygon points="0 0 24 0 24 24 0 24"></polygon>
            <path d="M12,1 L3,5 L3,11 C3,16.55 6.84,21.74 12,23 C17.16,21.74 21,16.55 21,11 L21,5 L12,1 Z M10,17 L6,13 L7.41,11.59 L10,14.17 L16.59,7.58 L18,9 L10,17 Z" fill="#384C57" fill-rule="nonzero"></path>
        </g>
    </g>
</svg>
